Gruvbox-Plus-Dark/actions/24/hide-reconciled.svg

<?xml version="1.0" encoding="UTF-8" standalone="no"?>
<svg
   width="24"
   height="24"
   version="1.1"
   viewBox="0 0 24 24"
   id="svg1"
   sodipodi:docname="hide-reconciled.svg"
   inkscape:version="1.3.2 (091e20ef0f, 2023-11-25, custom)"
   xmlns:inkscape="http://www.inkscape.org/namespaces/inkscape"
   xmlns:sodipodi="http://sodipodi.sourceforge.net/DTD/sodipodi-0.dtd"
   xmlns="http://www.w3.org/2000/svg"
   xmlns:svg="http://www.w3.org/2000/svg">
  <sodipodi:namedview
     id="namedview1"
     pagecolor="#ffffff"
     bordercolor="#666666"
     borderopacity="1.0"
     inkscape:showpageshadow="2"
     inkscape:pageopacity="0.0"
     inkscape:pagecheckerboard="0"
     inkscape:deskcolor="#d1d1d1"
     showgrid="true"
     inkscape:zoom="36.353093"
     inkscape:cx="11.402056"
     inkscape:cy="15.239419"
     inkscape:window-width="958"
     inkscape:window-height="847"
     inkscape:window-x="962"
     inkscape:window-y="233"
     inkscape:window-maximized="0"
     inkscape:current-layer="svg1">
    <inkscape:grid
       id="grid1"
       units="px"
       originx="0"
       originy="0"
       spacingx="1"
       spacingy="1"
       empcolor="#0099e5"
       empopacity="0.30196078"
       color="#0099e5"
       opacity="0.14901961"
       empspacing="5"
       dotted="false"
       gridanglex="30"
       gridanglez="30"
       visible="true" />
  </sodipodi:namedview>
  <defs
     id="defs1">
    <style
       type="text/css"
       id="style1">.ColorScheme-Text { color:#ebdbb2; } .ColorScheme-Highlight { color:#458588; }</style>
  </defs>
  <path
     class="ColorScheme-Text"
     d="m 7.498,5 v 1 h 3.5 V 17 L 7,18 v 1 H 17 V 18 L 12.998,17 V 6 h 3.496 V 5 Z m 8.996,1 -2.496,6 c 0,1.380712 1.119288,2.5 2.5,2.5 1.380712,0 2.5,-1.119288 2.5,-2.5 z M 7.498,6 5.002,12 c 0,1.380712 1.1192881,2.5 2.5,2.5 1.3807119,0 2.5,-1.119288 2.5,-2.5 z m 0.00195,2 1.668,4 h -3.332 z m 8.996,0 1.668,4 h -3.332 z"
     fill="currentColor"
     opacity="0.3"
     id="path1"
     sodipodi:nodetypes="cccccccccccccccsccccscccccccccc" />
</svg>

<svg width="24" height="24" version="1.1" viewBox="0 0 24 24" xmlns="http://www.w3.org/2000/svg">
  <defs>
    <style type="text/css">.ColorScheme-Text { color:#ebdbb2; } .ColorScheme-Highlight { color:#458588; }</style>
  </defs>
  <path class="ColorScheme-Text" d="m7.498 5v1h3.5v11l-3.998 1v1h10v-1l-4.002-1v-11h3.496v-1zm8.996 1-2.496 6c0 1.381 1.119 2.5 2.5 2.5s2.5-1.119 2.5-2.5zm-8.996 0-2.496 6c0 1.381 1.119 2.5 2.5 2.5s2.5-1.119 2.5-2.5zm0.00195 2 1.668 4h-3.332zm8.996 0 1.668 4h-3.332z" fill="currentColor" opacity=".3"/>
</svg>
